!!!COM: Bach, Johann Sebastian
!!!CDT: 1685/3//-1750/7/28/
!!!OTL@@DE: Wer nur den lieben Gott laesst walten
!!!SCT: BH 339
!!!SCT: BWV 179
!!!AGN: 4-Part Chorale
**harm	**root	**kern	**kern	**kern	**kern
*	*Iorgan	*Iorgan	*Iorgan	*Iorgan	*Iorgan
!	!	!bass	!tenor	!alto	!soprno
*	*	*clefF4	*clefF4	*clefG2	*clefG2
*M4/4	*M4/4	*M4/4	*M4/4	*M4/4	*M4/4
*met(c)	*met(c)	*met(c)	*met(c)	*met(c)	*met(c)
*MM60	*MM60	*MM60	*MM60	*MM60	*MM60
*k[]	*k[]	*k[]	*k[]	*k[]	*k[]
*a:	*a:	*a:	*a:	*a:	*a:
*>A	*>A	*>A	*>A	*>A	*>A
i	4AA	8A	4c	4e	4e
.	.	8G	.	.	.
=1	=1	=1	=1	=1	=1
VI	4FF	4F	8c	16e	4a
.	.	.	.	16d	.
.	.	.	16B	4f	.
.	.	.	16A	.	.
V	4EE	4E	8G#	.	4b
.	.	.	8e	16e	.
.	.	.	.	16d	.
I	4AA	4AA	4e	8c	4cc
.	.	.	.	4a	.
V/V	4BB	4BB	4d#	.	4b
.	.	.	.	[8g	.
=2	=2	=2	=2	=2	=2
V7b/IV	4AA	4C#	4e	8g]	4a
.	.	.	.	16f#	.
.	.	.	.	16e	.
Vb/V	4BB	4D#	4B	8f#	4b
.	.	.	.	8f#	.
V7	2EE	2E	4.B	8f#	4.g#
.	.	.	.	8e	.
.	.	.	.	8d	.
.	.	.	8A	8c	8f#
=3	=3	=3	=3	=3	=3
V;	4EE;	4E;	4G#;	4B;	4e;
vii/IV	4CC#	4C#	4E	8e	4gn
.	.	.	.	8d	.
V7/IV	4AA	4AA	4A	4c#	4g
iv	4DD	4F	4A	4d	4f
=4	=4	=4	=4	=4	=4
V7d	8EE	8D	8G#	8B	4e
ib	8AA	8C	8A	8cn	.
ii7Dc	8BB	8F	8B	8d	4a
ic	8AA	8E	8c	8e	.
vii7D/V	4DD#	4D#	8c	4f#	4a
.	.	.	8B	.	.
V	4EE	4E	4B	4e	4g#
=5	=5	=5	=5	=5	=5
I	2.AA	2.AA;	2.c#;	2.e;	2.a;
!!linebreak: 2
=:|!	=:|!	=:|!	=:|!	=:|!	=:|!
*>B	*>B	*>B	*>B	*>B	*>B
V	4EE	4E	4e	4g#	4b
=6	=6	=6	=6	=6	=6
i	4AA	4A	16e	4a	4cc
.	.	.	16c	.	.
.	.	.	4f	.	.
V7/III	4GG	8G	.	4b	4dd
.	.	8F	16e	.	.
.	.	.	16f	.	.
III	4CC	8E	8c	8cc	4ee
.	.	8D	8d	8g	.
III	4CC	4C	4e	8cc	4ee
.	.	.	.	8b-	.
=7	=7	=7	=7	=7	=7
iv	4DD	8D	8f	4a	4dd
.	.	16E	8d	.	.
.	.	16F	.	.	.
V7/III	4GG	8G	8g	4bn	4dd
.	.	8GG	8f	.	.
III;	4CC;	4C;	4e;	4g;	4cc;
III	4CC	4C	4c	4g	4ee
=8	=8	=8	=8	=8	=8
iv	4DD	4D	8c	4f	4dd
.	.	.	8B	.	.
vii7D/V	4DD#	4D#	8A	4f#	4cc
.	.	.	16G#	.	.
.	.	.	16A	.	.
V7	4EE	4E	8E	4g#	4b
.	.	.	8dn	.	.
VI	4FF	4Fn	8c	4a	4a
.	.	.	8B	.	.
=9	=9	=9	=9	=9	=9
vii7D/V	4DD#	8F#	4.A	8d#	4cc
.	.	8D#	.	8f#	.
V7	4EE	8E	.	8fn	4b
.	.	8EE	8G#	16e	.
.	.	.	.	16dn	.
I;	4AA;	4AA;	4E;	4c#;	4a;
==	==	==	==	==	==
*-	*-	*-	*-	*-	*-
!!chor2scor: -l 2 -s 0.6 -o %b.pmx
!!!YEC: Copyright 2003 by Craig Stuart Sapp
!!!license: GNU General Public License (http://www.gnu.org/copyleft/gpl.html)
!!!SMA: 371 Bach Chorales, edited by Ludwig Erk, C.F. Peters
!!!PDT: 1850, 1865
!!!ONB: Harmony and Root analysis done manually by Craig Sapp
